X: 4
T: The Humours Of Tulla
R: reel
M: 4/4
L: 1/8
K: Gmaj
|: G2DG EGDE | G2BG AGEF | G2DG EGDG | (3EFG AB c2BA |G2DG EGDE | G2BG AGEF | G2DG EGDG | (3EFG AB c2BA |||: dB B2 GB B2 | dB B2 cA A2 | dB B2 GBAG | (3EFG AB c2Bc |dB B2 GB B2 | dB B2 cA A2 | dB B2 GBAG | (3EFG AB c2Bc ||


Tune 141	Setting 530

